packages/core/src/svgs/bpt.svg

<svg width="24" height="24" viewBox="0 0 24 24" fill="none" xmlns="http://www.w3.org/2000/svg">
<g clip-path="url(#clip0_31_7323)">
<path d="M0 0H24V24H0V0Z" fill="#05BF68"/>
<path d="M9.85718 5.57129H11.5715V8.57129H10.2857C10.1721 8.57129 10.0631 8.61644 9.9827 8.69681C9.90233 8.77719 9.85718 8.8862 9.85718 8.99986V14.9999C9.85718 15.1135 9.90233 15.2225 9.9827 15.3029C10.0631 15.3833 10.1721 15.4284 10.2857 15.4284H11.5715V18.4284H9.85718C9.06153 18.4284 8.29847 18.1124 7.73586 17.5498C7.17325 16.9871 6.85718 16.2241 6.85718 15.4284V8.57129C6.85718 7.77564 7.17325 7.01258 7.73586 6.44997C8.29847 5.88736 9.06153 5.57129 9.85718 5.57129ZM12.4286 18.4284H14.1429C14.9385 18.4284 15.7016 18.1124 16.2642 17.5498C16.8268 16.9871 17.1429 16.2241 17.1429 15.4284V13.7141H14.1429V14.9999C14.1429 15.1135 14.0977 15.2225 14.0174 15.3029C13.937 15.3833 13.828 15.4284 13.7143 15.4284H12.4286V18.4284ZM14.1429 8.99986C14.1429 8.8862 14.0977 8.77719 14.0174 8.69681C13.937 8.61644 13.828 8.57129 13.7143 8.57129H12.4286V5.57129H14.1429C14.9385 5.57129 15.7016 5.88736 16.2642 6.44997C16.8268 7.01258 17.1429 7.77564 17.1429 8.57129V9.42843H14.1429V8.99986Z" fill="white"/>
</g>
<defs>
<clipPath id="clip0_31_7323">
<rect width="24" height="24" fill="white"/>
</clipPath>
</defs>
</svg>

<svg xmlns="http://www.w3.org/2000/svg" width="24" height="24" fill="none" viewBox="0 0 24 24"><g clip-path="url(#a)"><path fill="#05BF68" d="M0 0h24v24H0z"/><path fill="#fff" d="M9.857 5.571h1.715v3h-1.286A.43.43 0 0 0 9.857 9v6a.43.43 0 0 0 .429.428h1.286v3H9.857a3 3 0 0 1-3-3V8.571a3 3 0 0 1 3-3m2.572 12.857h1.714a3 3 0 0 0 3-3v-1.714h-3V15a.43.43 0 0 1-.429.428H12.43zM14.143 9a.43.43 0 0 0-.429-.429H12.43v-3h1.714a3 3 0 0 1 3 3v.857h-3z"/></g><defs><clipPath id="a"><path fill="#fff" d="M0 0h24v24H0z"/></clipPath></defs></svg>
